X: 353
T: Xianyang hua
%%abc-version 2.0
%%abcx-abcm2ps-target-version 5.9.1 (29 Sep 2008)
%%abc-creator hum2abc beta
%%abcx-conversion-date 2013/10/02 07:52:30
%%abc-edited-by Helmut Schaffrath
%%humdrum-veritas 643770337
%%humdrum-veritas-data 2138323241
%%continueall 1
%%barnumbers 0
L: 1/8
M: 2/4
K: G
de2B [I:setbarnb 1]| 
d4 | 
dB2A | 
G4 | 
AA2B | 
d BA2 | 
E2B A | 
G4 | 
B AG2 | 
G2E2 | 
E G E G | 
d B A G | 
E G A B | 
A GE2 | 
D4 |]  



